pages/zim/img/icon/phone-white-icon.svg

<svg width="19" height="18" viewBox="0 0 19 18" fill="none" xmlns="http://www.w3.org/2000/svg">
<path d="M15.2053 11.0852C14.5519 10.4536 13.7362 10.4536 13.087 11.0852C12.5917 11.5661 12.0965 12.0469 11.6095 12.5359C11.4764 12.6703 11.364 12.6989 11.2017 12.6092C10.8812 12.4381 10.54 12.2995 10.232 12.1121C8.79616 11.2278 7.5934 10.091 6.52797 8.81147C5.99942 8.17579 5.52914 7.4953 5.20036 6.72923C5.13377 6.57438 5.14625 6.47251 5.27527 6.34619C5.77052 5.87759 6.25329 5.39676 6.74022 4.91593C7.4186 4.24765 7.4186 3.46528 6.73606 2.79294C6.34902 2.4099 5.96197 2.03502 5.57492 1.65198C5.17538 1.2608 4.78001 0.865541 4.37632 0.478432C3.72291 -0.145018 2.9072 -0.145018 2.25795 0.482506C1.75854 0.963337 1.27993 1.45639 0.772188 1.92907C0.301903 2.36508 0.0646799 2.89888 0.0147382 3.52233C-0.0643362 4.53697 0.189534 5.49455 0.54745 6.42769C1.27993 8.35916 2.39529 10.0747 3.74788 11.6476C5.57492 13.7746 7.75571 15.4575 10.3069 16.6718C11.4556 17.2178 12.6458 17.6376 13.9402 17.7068C14.8308 17.7557 15.6049 17.5357 16.225 16.8552C16.6495 16.3907 17.1281 15.9669 17.5776 15.5227C18.2435 14.8626 18.2476 14.0639 17.5859 13.412C16.7952 12.6337 16.0003 11.8594 15.2053 11.0852Z" fill="white"/>
</svg>

<svg width="19" height="18" fill="none" xmlns="http://www.w3.org/2000/svg"><path d="M15.205 11.085c-.653-.631-1.469-.631-2.118 0-.495.481-.99.962-1.477 1.45-.134.135-.246.164-.408.074-.32-.17-.662-.31-.97-.497-1.436-.884-2.639-2.021-3.704-3.3-.529-.636-.999-1.317-1.328-2.083-.066-.155-.054-.256.075-.383.496-.468.978-.95 1.465-1.43.679-.668.679-1.45-.004-2.123-.387-.383-.774-.758-1.161-1.141-.4-.391-.795-.786-1.199-1.174-.653-.623-1.469-.623-2.118.005-.5.48-.978.973-1.486 1.446-.47.436-.707.97-.757 1.593-.08 1.015.175 1.973.532 2.906.733 1.931 1.848 3.647 3.2 5.22a19.752 19.752 0 006.56 5.024c1.149.546 2.339.966 3.633 1.035.89.049 1.665-.171 2.285-.852.424-.464.903-.888 1.353-1.332.666-.66.67-1.46.008-2.111-.79-.778-1.586-1.553-2.38-2.327z" fill="#fff"/></svg>
